X:11
T:Hurry the Jug
Z: id:dc-setdance-12
M:6/8
L:1/8
K:E Dorian
B,|EFE G2A|BGE FEF|DED F2G|AdB AFD|!
EFE G2A|BGE FGA|BdB AdF|EGF E2:|!
B|AFA d2d|cec d2B|AFA d2A|BAG FED|!
[1 E2e e2f|g2e f2d|B2e e2f|gfe fdB:|!
[2 EFE G2A|BGE FGA|BdB AdF|EGF E2|]!

